images_sukapura_svg/cmd/lc_colorscaleformatdialog.svg

<svg viewBox="0 0 24 24" xmlns="http://www.w3.org/2000/svg" xmlns:xlink="http://www.w3.org/1999/xlink"><filter id="a" color-interpolation-filters="sRGB" height="1.094553" width="1.097492" x="-.048746" y="-.047277"><feGaussianBlur stdDeviation=".36559322"/></filter><linearGradient id="b" gradientTransform="translate(-28 15)" gradientUnits="userSpaceOnUse" x1="14" x2="13.79661" y1="22" y2="2.135593"><stop offset="0" stop-color="#0040dd"/><stop offset="1" stop-color="#0a84ff"/></linearGradient><linearGradient id="c" gradientUnits="userSpaceOnUse" x1="20" x2="20" xlink:href="#b" y1="22.5" y2="11"/><linearGradient id="d" gradientUnits="userSpaceOnUse" x1="13" x2="13" xlink:href="#b" y1="23" y2="11"/><path d="m3 1.4406782h18v18.5593218h-18z" filter="url(#a)" opacity=".15" stroke-width="1.015418" transform="matrix(1 0 0 .88904111 0 1.719178)"/><path d="m12 12h10v10h-10z" fill="#fff"/><path d="m3 3v15h18v-8-7z" fill="#fff"/><path d="m11 3v3h-8v1h8v3h-8v1h8v3h-8v1h8v3h-8v.5h17v-.5h-8v-3h8v-1h-8v-3h8v-1h-8v-3h8v-1h-8v-3z" fill="#bababa"/><path d="m3 3h6v3.5h-6z" fill="#f58b00"/><path d="m3 6.5h5v4h-5z" fill="#0040dd"/><path d="m3 10.5h6v4h-6z" fill="#f58b00"/><path d="m2 2v1 7 8c0 .554.446 1 1 1h8 1 8c.554 0 1-.446 1-1v-8-7-1zm1 1h8 1 8v3 1 3 1 3 1 3h-17v-3-1-3-1-3-1z" fill="#69696e"/><path d="m12 12h10v10h-10z" fill="#fff"/><path d="m3 14.5h4v3.5h-4z" fill="#0040dd"/><path d="m18.498047 12.994141a.50005.50005 0 0 0 -.457031.308593l-.728516 1.697266h-3.8125c-.277 0-.5.223-.5.5s.223.5.5.5h3.384766l-.857422 2h-2.527344c-.277 0-.5.223-.5.5s.223.5.5.5h2.099609l-.558593 1.302734a.50005.50005 0 1 0 .917968.394532l.726563-1.697266h3.814453c.277 0 .5-.223.5-.5s-.223-.5-.5-.5h-3.384766l.857422-2h2.527344c.277 0 .5-.223.5-.5s-.223-.5-.5-.5h-2.099609l.558593-1.302734a.50005.50005 0 0 0 -.460937-.703125z" fill="url(#c)"/><path d="m12 11c-.554 0-1 .446-1 1v10c0 .554.446 1 1 1h10c.554 0 1-.446 1-1v-10c0-.554-.446-1-1-1zm0 1h10v10h-10z" fill="url(#d)"/></svg>

<?xml version="1.0" encoding="UTF-8" standalone="no"?>
<svg
   xmlns:dc="http://purl.org/dc/elements/1.1/"
   xmlns:cc="http://creativecommons.org/ns#"
   xmlns:rdf="http://www.w3.org/1999/02/22-rdf-syntax-ns#"
   xmlns:svg="http://www.w3.org/2000/svg"
   xmlns="http://www.w3.org/2000/svg"
   xmlns:xlink="http://www.w3.org/1999/xlink"
   xmlns:sodipodi="http://sodipodi.sourceforge.net/DTD/sodipodi-0.dtd"
   xmlns:inkscape="http://www.inkscape.org/namespaces/inkscape"
   viewBox="0 0 24 24"
   version="1.1"
   id="svg22"
   sodipodi:docname="lc_colorscaleformatdialog.svg"
   inkscape:export-filename="/home/rizmut/Dokumen/Rizmut/Github/libreoffice-style-sukapura/images_sukapura/cmd/lc_colorscaleformatdialog.png"
   inkscape:export-xdpi="96"
   inkscape:export-ydpi="96"
   inkscape:version="0.92.3 (unknown)">
  <metadata
     id="metadata28">
    <rdf:RDF>
      <cc:Work
         rdf:about="">
        <dc:format>image/svg+xml</dc:format>
        <dc:type
           rdf:resource="http://purl.org/dc/dcmitype/StillImage" />
        <dc:title></dc:title>
      </cc:Work>
    </rdf:RDF>
  </metadata>
  <defs
     id="defs26">
    <filter
       style="color-interpolation-filters:sRGB"
       id="b"
       height="1.094553"
       width="1.097492"
       x="-0.048746001"
       y="-0.047277">
      <feGaussianBlur
         stdDeviation=".36559322"
         id="feGaussianBlur987" />
    </filter>
    <linearGradient
       gradientTransform="translate(-37.728814,-3.5658238)"
       id="a"
       gradientUnits="userSpaceOnUse"
       x1="12"
       x2="12"
       y1="3"
       y2="21">
      <stop
         offset="0"
         stop-color="#efefef"
         id="stop978" />
      <stop
         offset=".33333334"
         stop-color="#fff"
         id="stop980" />
      <stop
         offset=".8888889"
         stop-color="#fff"
         id="stop982" />
      <stop
         offset="1"
         stop-color="#f5f5f5"
         id="stop984" />
    </linearGradient>
    <linearGradient
       gradientTransform="translate(-28,15)"
       id="a-3"
       gradientUnits="userSpaceOnUse"
       x1="14"
       x2="13.79661"
       y1="22"
       y2="2.1355929">
      <stop
         offset="0"
         stop-color="#0040dd"
         id="stop2568" />
      <stop
         offset="1"
         stop-color="#0a84ff"
         id="stop2570" />
    </linearGradient>
    <linearGradient
       inkscape:collect="always"
       xlink:href="#a-3"
       id="linearGradient3156"
       x1="20"
       y1="22.5"
       x2="20"
       y2="11"
       gradientUnits="userSpaceOnUse" />
    <linearGradient
       inkscape:collect="always"
       xlink:href="#a-3"
       id="linearGradient3158"
       x1="13"
       y1="23"
       x2="13"
       y2="11"
       gradientUnits="userSpaceOnUse" />
  </defs>
  <sodipodi:namedview
     pagecolor="#ffffff"
     bordercolor="#666666"
     borderopacity="1"
     objecttolerance="10"
     gridtolerance="10"
     guidetolerance="10"
     inkscape:pageopacity="0"
     inkscape:pageshadow="2"
     inkscape:window-width="1366"
     inkscape:window-height="699"
     id="namedview24"
     showgrid="true"
     inkscape:zoom="6.9532167"
     inkscape:cx="-8.6542043"
     inkscape:cy="8.5485691"
     inkscape:window-x="0"
     inkscape:window-y="0"
     inkscape:window-maximized="1"
     inkscape:current-layer="svg22">
    <inkscape:grid
       type="xygrid"
       id="grid1604"
       spacingx="0.5"
       spacingy="0.5"
       empspacing="2" />
  </sodipodi:namedview>
  <path
     inkscape:connector-curvature="0"
     style="opacity:0.15;stroke-width:1.01541805;filter:url(#b)"
     d="M 3,1.4406782 H 21 V 20 H 3 Z"
     id="path990"
     transform="matrix(1,0,0,0.88904111,0,1.7191779)" />
  <path
     d="m12 12h10v10h-10z"
     fill="#fff"
     id="path2" />
  <path
     d="M 3,3 V 18 H 21 V 10 3 Z"
     id="path4"
     inkscape:connector-curvature="0"
     style="fill:#ffffff"
     sodipodi:nodetypes="cccccc" />
  <path
     style="fill:#bababa;fill-opacity:1"
     d="M 11 3 L 11 6 L 3 6 L 3 7 L 11 7 L 11 10 L 3 10 L 3 11 L 11 11 L 11 14 L 3 14 L 3 15 L 11 15 L 11 18 L 3 18 L 3 18.5 L 20 18.5 L 20 18 L 12 18 L 12 15 L 20 15 L 20 14 L 12 14 L 12 11 L 20 11 L 20 10 L 12 10 L 12 7 L 20 7 L 20 6 L 12 6 L 12 3 L 11 3 z "
     id="path6" />
  <path
     d="M 3,3 H 9 V 6.5 H 3 Z"
     id="path8"
     style="fill:#f58b00;fill-opacity:1"
     inkscape:connector-curvature="0"
     sodipodi:nodetypes="ccccc" />
  <path
     d="m 3,6.5 h 5 v 4 H 3 Z"
     id="path10"
     style="fill:#0040dd;fill-opacity:1"
     inkscape:connector-curvature="0"
     sodipodi:nodetypes="ccccc" />
  <path
     d="m 3,10.5 h 6 v 4 H 3 Z"
     id="path12"
     style="fill:#f58b00;fill-opacity:1"
     inkscape:connector-curvature="0"
     sodipodi:nodetypes="ccccc" />
  <path
     style="fill:#69696e;fill-opacity:1"
     d="m 2,2 v 1 7 8 c 0,0.554 0.446,1 1,1 h 8 1 8 c 0.554,0 1,-0.446 1,-1 V 10 3 2 Z m 1,1 h 8 1 8 v 3 1 3 1 3 1 3 0 H 3 V 18 15 14 11 10 7 6 Z"
     id="path1619"
     inkscape:connector-curvature="0"
     sodipodi:nodetypes="cccssccssccccccccccccccccccccccccc" />
  <rect
     style="opacity:1;fill:#ffffff;fill-opacity:1;stroke:none;stroke-width:1;stroke-linecap:round;stroke-linejoin:round;stroke-miterlimit:4;stroke-dasharray:none;stroke-opacity:0"
     id="rect1627"
     width="10"
     height="10"
     x="12"
     y="12" />
  <path
     style="fill:#0040dd;fill-opacity:1"
     inkscape:connector-curvature="0"
     id="path14"
     d="M 3,14.5 H 7 V 18 H 3 Z"
     sodipodi:nodetypes="ccccc" />
  <path
     style="fill:url(#linearGradient3156);fill-opacity:1"
     inkscape:connector-curvature="0"
     id="path16"
     d="m 18.498047,12.994141 a 0.50005,0.50005 0 0 0 -0.457031,0.308593 L 17.3125,15 H 13.5 c -0.277,0 -0.5,0.223 -0.5,0.5 0,0.277 0.223,0.5 0.5,0.5 h 3.384766 l -0.857422,2 H 13.5 c -0.277,0 -0.5,0.223 -0.5,0.5 0,0.277 0.223,0.5 0.5,0.5 h 2.099609 l -0.558593,1.302734 a 0.50005,0.50005 0 1 0 0.917968,0.394532 L 16.685547,19 H 20.5 C 20.777,19 21,18.777 21,18.5 21,18.223 20.777,18 20.5,18 h -3.384766 l 0.857422,-2 H 20.5 C 20.777,16 21,15.777 21,15.5 21,15.223 20.777,15 20.5,15 h -2.099609 l 0.558593,-1.302734 a 0.50005,0.50005 0 0 0 -0.460937,-0.703125 z" />
  <path
     style="fill:url(#linearGradient3158);fill-opacity:1"
     inkscape:connector-curvature="0"
     id="path18"
     d="m 12,11 c -0.554,0 -1,0.446 -1,1 v 10 c 0,0.554 0.446,1 1,1 h 10 c 0.554,0 1,-0.446 1,-1 V 12 c 0,-0.554 -0.446,-1 -1,-1 z m 0,1 H 22 V 22 H 12 Z" />
</svg>
